X:268
T:Leckan Mòr
C:Cillian Vallely
R:jig
M:6/8
L:1/8
K:Bmin
B3 dcB | efb afd | ecc cde | gfe dcB |
FBB dcB | f2b afd | efg fdB |1 cdF B2F :|2 cdF B2f ||
abf afg | fdB Bcd | cde efg | fdB c2f |
abf afg | fdB Bcd | cde A2e | edc B2f ||
abf afg | fdB Bcd | cde edc | def efa |
bfa efg | fdB BcA | cde def | fed edc |]
